X:1
T:Humility
T:A minor                    Alexander Gillet, 1807
T:Transcribed from The Hartford Collection of Sacred Harmony, 1807.
T:Isaac Watts, 1719 (Psalm 119, Part 16)       86. 86. (C. M.)  
%%score [ 1 2 3 4 ]
L:1/8
Q:1/4=180
M:3/2
K:C
V:1 treble nm="Tr." snm="Tr.\n1"
V:2 treble nm="C." snm="Tr.\n2"
V:3 treble-8 nm="T." snm="T."
V:4 bass nm="B." snm="B."
V:1
"_1. My  soul     lies  cleaving   to     the  dust;  Lord,  give me life divine; From vain ____ de – sires ___  and   eve    –    ry   lust  Turn off _____  these  eyes ____   of   mine.\n2.  I     need    the  influence  of    thy grace   To  speed  me  in  thy way,  Lest  I ______ should  loi   –   ter    in ____  my  race,  Or   turn ____    my    feet ____    a  – stray." A4 | %1
 (c4 B4) A4 | ^G8 e4 | (d4 c4) B4 | A8 ^G4 | (A4 d4) c4 | B8 A4 | ^G8 c4 | (c3 B A4) c4 | %9
 (B3 c d4) e4 | (e3 d c4) B4 | B8 e4 | (e3 d c4) B4 | (c3 B A4) ^G4 | A12 |] %15
V:2
"_3. When sore   afflictions   press  me  down, I need thy quickening  powers; Thy word   that  I             have   res     –    ted on  Shall  help           my     hea    –    viest  hours.\n4.  Are    not  thy mercies   sovereign   still,  And  thou     a   faithful  God?   Wilt  thou   not  grant       me    war   –  mer zeal  To     run             the     hea   –    venly  road?" E4 | %1
 (E4 ^G4) E4 | E8 G4 | F8 E4 | E8 E4 | (E4 D4) A4 | G8 E4 | E8 G4 | (G3 F E4) G4 | G8 ^G4 | %10
 (A4 G4) G4 | G8 ^G4 | E8 F4 | E8 E4 | E12 |] %15
V:3
"__________________________________________________\nEdited by B. C. Johnston, 2018\n   1. G changed to G# in Counter, Measures 2, 10, and 12.""_5. Does  not   my  heart  thy  precepts  love,  And  long   to  see thy face?  And yet ___  how  slow ____ my  spi    –    rits move  With–out ____ en   –  li     –   vening  grace!\n6. Then  shall  I     love   thy   gospel  more,  And  ne'er   forget  thy word, When I ___  have   felt _____ its  quickening  power, To draw _____  me     near ____  the   Lord." A4 | %1
 (e4 d4) c4 | B8 c4 | (B4 A4) ^G4 | A8 B4 | (c4 ^G4) A4 | d8 c4 | B8 e4 | (e3 f g4) e4 | %9
 (d3 c B4) ^G4 | (A3 B c4) d4 | e8 ^G4 | (A3 B c4) (d2 f2) | (e3 d c4) B4 | A12 |] %15
V:4
 A,4 | (A,4 ^G,4) A,4 | E,8 C,4 | D,8 E,4 | A,,8 E,4 | (A,4 B,4) C4 | G,8 A,4 | E,8 C,4 | C,8 E,4 | %9
 G,8 E,4 | (C3 B, A,4) B,4 | E,8 E,4 | (A,3 ^G, A,4) D,4 | E,8 E,4 | A,,12 |] %15

